public/images/no3.svg

<svg width="18" height="22" viewBox="0 0 18 22" fill="none" xmlns="http://www.w3.org/2000/svg">
<path d="M7.78589 4.39044C8.54095 3.97097 9.45905 3.97097 10.2141 4.39044L15.2141 7.16822C16.0078 7.60914 16.5 8.4457 16.5 9.35361V14.6464C16.5 15.5543 16.0078 16.3909 15.2141 16.8318L10.2141 19.6096C9.45905 20.029 8.54095 20.029 7.78589 19.6096L2.78589 16.8318C1.99223 16.3909 1.5 15.5543 1.5 14.6464V9.35361C1.5 8.4457 1.99223 7.60914 2.78589 7.16822L7.78589 4.39044Z" fill="#FFD991" stroke="#997B54" stroke-width="3"/>
<path d="M7.78589 2.39044C8.54095 1.97097 9.45905 1.97097 10.2141 2.39044L15.2141 5.16822C16.0078 5.60914 16.5 6.4457 16.5 7.35361V12.6464C16.5 13.5543 16.0078 14.3909 15.2141 14.8318L10.2141 17.6096C9.45905 18.029 8.54095 18.029 7.78589 17.6096L2.78589 14.8318C1.99223 14.3909 1.5 13.5543 1.5 12.6464V7.35361C1.5 6.4457 1.99223 5.60914 2.78589 5.16822L7.78589 2.39044Z" fill="#FCAA5A" stroke="#FDD199" stroke-width="3"/>
<path d="M10.6061 9.10922C11.9261 9.43922 12.5861 10.1982 12.5861 11.3862C12.5861 11.8849 12.4321 12.3249 12.1241 12.7062C11.8161 13.0875 11.3871 13.3845 10.8371 13.5972C10.2944 13.8025 9.6784 13.9052 8.98906 13.9052C8.16773 13.9052 7.4894 13.7842 6.95406 13.5422C6.42606 13.2929 6.04106 12.9922 5.79906 12.6402C5.55706 12.2882 5.42873 11.9472 5.41406 11.6172C5.41406 11.5512 5.43606 11.4962 5.48006 11.4522C5.5314 11.4009 5.59006 11.3752 5.65606 11.3752H7.86706C7.95506 11.3752 8.02473 11.3899 8.07606 11.4192C8.1274 11.4485 8.1824 11.4925 8.24106 11.5512C8.3144 11.6245 8.40606 11.6795 8.51606 11.7162C8.62606 11.7529 8.7874 11.7712 9.00006 11.7712C9.24206 11.7712 9.42173 11.7162 9.53906 11.6062C9.66373 11.4962 9.72606 11.3569 9.72606 11.1882C9.72606 10.8655 9.48406 10.7042 9.00006 10.7042H7.62506C7.5444 10.7042 7.47473 10.6749 7.41606 10.6162C7.3574 10.5575 7.32806 10.4879 7.32806 10.4072V9.51622C7.32806 9.41355 7.35006 9.32555 7.39406 9.25222C7.43806 9.17155 7.4894 9.11288 7.54806 9.07622L9.07706 8.24022H6.18406C6.1034 8.24022 6.03373 8.21088 5.97506 8.15222C5.9164 8.09355 5.88706 8.02388 5.88706 7.94322V6.39222C5.88706 6.31155 5.9164 6.24188 5.97506 6.18322C6.03373 6.12455 6.1034 6.09521 6.18406 6.09521H11.8161C11.8967 6.09521 11.9664 6.12455 12.0251 6.18322C12.0837 6.24188 12.1131 6.31155 12.1131 6.39222V7.78922C12.1131 7.88455 12.0911 7.97255 12.0471 8.05322C12.0031 8.12655 11.9517 8.18521 11.8931 8.22921L10.6061 9.10922Z" fill="white"/>
</svg>

<svg xmlns="http://www.w3.org/2000/svg" width="18" height="22" fill="none"><path fill="#FFD991" stroke="#997B54" stroke-width="3" d="M7.786 4.39a2.5 2.5 0 0 1 2.428 0l5 2.778A2.5 2.5 0 0 1 16.5 9.354v5.292a2.5 2.5 0 0 1-1.286 2.186l-5 2.778a2.5 2.5 0 0 1-2.428 0l-5-2.778A2.5 2.5 0 0 1 1.5 14.646V9.354a2.5 2.5 0 0 1 1.286-2.186l5-2.778Z"/><path fill="#FCAA5A" stroke="#FDD199" stroke-width="3" d="M7.786 2.39a2.5 2.5 0 0 1 2.428 0l5 2.778A2.5 2.5 0 0 1 16.5 7.354v5.292a2.5 2.5 0 0 1-1.286 2.186l-5 2.778a2.5 2.5 0 0 1-2.428 0l-5-2.778A2.5 2.5 0 0 1 1.5 12.646V7.354a2.5 2.5 0 0 1 1.286-2.186l5-2.778Z"/><path fill="#fff" d="M10.606 9.11c1.32.33 1.98 1.088 1.98 2.276 0 .499-.154.939-.462 1.32-.308.382-.737.678-1.287.891-.543.206-1.159.308-1.848.308-.821 0-1.5-.12-2.035-.363-.528-.25-.913-.55-1.155-.902s-.37-.693-.385-1.023c0-.066.022-.12.066-.165a.242.242 0 0 1 .176-.077h2.211c.088 0 .158.015.21.044.05.03.105.073.164.132a.691.691 0 0 0 .275.165c.11.037.271.055.484.055.242 0 .422-.055.54-.165a.533.533 0 0 0 .186-.418c0-.322-.242-.484-.726-.484H7.625a.29.29 0 0 1-.209-.088.286.286 0 0 1-.088-.209v-.89c0-.103.022-.191.066-.265a.46.46 0 0 1 .154-.176l1.53-.836H6.183a.29.29 0 0 1-.209-.088.286.286 0 0 1-.088-.209v-1.55a.29.29 0 0 1 .088-.21.286.286 0 0 1 .21-.088h5.631c.08 0 .15.03.21.088a.286.286 0 0 1 .087.21v1.396a.542.542 0 0 1-.22.44l-1.287.88Z"/></svg>
